build/assets/img/svg/footer-youtube.svg

<svg width="20" height="20" fill="none" xmlns="http://www.w3.org/2000/svg"><path d="M18.29 4c-1-1-4.8-1-8.29-1-3.49 0-7.33 0-8.28 1C.77 5 .5 6.09.5 10s.27 5.06 1.22 6c.95.94 4.8 1 8.28 1 3.48 0 7.33 0 8.29-1 .96-1 1.21-2.11 1.21-6s-.26-5.06-1.21-6zm-4.94 6.18l-5.55 3.2c-.15.08-.26 0-.26-.16V6.78c0-.17.12-.24.26-.16l5.55 3.22c.15.1.15.24 0 .32v.02z" stroke="#fff" stroke-width=".75" stroke-linecap="round" stroke-linejoin="round"/></svg>

<svg width="20" height="20" viewBox="0 0 20 20" fill="none" xmlns="http://www.w3.org/2000/svg">
<path d="M18.29 4C17.29 3 13.49 3 10 3C6.51 3 2.67 3 1.72 4C0.77 5 0.5 6.09 0.5 10C0.5 13.91 0.77 15.06 1.72 16C2.67 16.94 6.52 17 10 17C13.48 17 17.33 17 18.29 16C19.25 15 19.5 13.89 19.5 10C19.5 6.11 19.24 4.94 18.29 4ZM13.35 10.18L7.8 13.38C7.65 13.46 7.54 13.38 7.54 13.22V6.78C7.54 6.61 7.66 6.54 7.8 6.62L13.35 9.84C13.5 9.94 13.5 10.08 13.35 10.16V10.18Z" stroke="white" stroke-width="0.75" stroke-linecap="round" stroke-linejoin="round"/>
</svg>
